resources/svg/lang-icon.svg

<svg class="mr-2" width="20" height="20" viewBox="0 0 24 24" fill="none" stroke="#3362CC" class="dark:stroke-white" xmlns="http://www.w3.org/2000/svg">
    <path d="M2 11.0196L2.98039 7.45923M8.86273 11.0196L7.93394 7.45923M2.98039 7.45923L4.48366 2H6.5098L7.93394 7.45923M2.98039 7.45923H7.93394" stroke-width="1"/>
    <path d="M12.2617 14.2875C15.8565 10.6273 19.2226 17 14.2226 17.5556M14.2226 17.5556C19.2226 18.6667 15.3993 24.5979 12.2617 20.5127M14.2226 17.5556L19.8434 17.4902M19.8434 17.4902V13.307H22.0003M19.8434 17.4902V22.0002" stroke-width="1"/>
    <path d="M12.9805 5.26776C16.1177 5.26776 16.706 5.5292 16.706 8.66645"  stroke-width="1"/>
    <path d="M8.79785 17.49C5.6606 17.49 5.07237 17.2285 5.07237 14.0913" stroke-width="1"/>
</svg>

<svg class="dark:stroke-white" width="20" height="20" viewBox="0 0 24 24" fill="none" stroke="#3362CC" xmlns="http://www.w3.org/2000/svg"><path d="m2 11 1-3.5M8.9 11l-1-3.5m-5 0L4.6 2h2L8 7.5m-5 0h5m4.3 6.8c3.6-3.7 7 2.7 2 3.3m0 0c5 1 1.1 7-2 3m2-3 5.5-.1m0 0v-4.2H22m-2.2 4.2V22M13 5.3c3.1 0 3.7.2 3.7 3.4m-7.9 8.8c-3.1 0-3.7-.3-3.7-3.4"/></svg>
